; generated by PrusaSlicer 2.3.0-beta2+ on 2020-12-15 at 15:14:50 UTC

; 

; external perimeters extrusion width = 0.45mm
; perimeters extrusion width = 0.45mm
; infill extrusion width = 0.45mm
; solid infill extrusion width = 0.45mm
; top infill extrusion width = 0.40mm
; first layer extrusion width = 0.42mm

M73 P0 R96
M73 Q0 S97
M201 X1000 Y1000 Z200 E5000 ; sets maximum accelerations, mm/sec^2
M203 X200 Y200 Z12 E120 ; sets maximum feedrates, mm/sec
M204 P1250 R1250 T1250 ; sets acceleration (P, T) and retract acceleration (R), mm/sec^2
M205 X8.00 Y8.00 Z0.40 E4.50 ; sets the jerk limits, mm/sec
M205 S0 T0 ; sets the minimum extruding and travel feed rate, mm/sec
M107
;TYPE:Custom
M862.3 P "MK3S" ; printer model check
M862.1 P0.4 ; nozzle diameter check
M115 U3.9.1 ; tell printer latest fw version
G90 ; use absolute coordinates
M83 ; extruder relative mode
M104 S240 ; set extruder temp
M140 S85 ; set bed temp
M190 S85 ; wait for bed temp
M109 S240 ; wait for extruder temp
G28 W ; home all without mesh bed level
G80 ; mesh bed leveling
G1 Y-3.0 F1000.0 ; go outside print area
G92 E0.0
G1 X60.0 E9.0 F1000.0 ; intro line
G1 X100.0 E12.5 F1000.0 ; intro line
G92 E0.0
M221 S95

; Don't change E values below. Excessive value can damage the printer.

M907 E538 ; set extruder motor current
G21 ; set units to millimeters
G90 ; use absolute coordinates
M83 ; use relative distances for extrusion
M900 K0.08 ; Filament gcode LA 1.5
M900 K45 ; Filament gcode LA 1.0
;LAYER_CHANGE
;Z:0.2
;HEIGHT:0.2
;BEFORE_LAYER_CHANGE
G92 E0.0
;0.2


G1 E-1.40000 F2100.000
G1 Z0.200 F10800.000
;AFTER_LAYER_CHANGE
;0.2
G1 Z0.400
G1 X18.193 Y44.288
G1 Z0.200
G1 E1.40000 F2100.000
M204 S1000
;TYPE:Skirt
G1 F1200.000
G1 X28.664 Y42.802 E0.33160
G1 X29.450 Y42.749 E0.02469
G1 X222.467 Y42.748 E6.05193
M73 Q0 S96
G1 X223.875 Y42.880 E0.04434
G1 X225.012 Y43.197 E0.03700
G1 X231.399 Y45.838 E0.21672
G1 X232.016 Y46.227 E0.02284
G1 X232.479 Y46.774 E0.02249
G1 X237.506 Y55.168 E0.30677
G1 X237.715 Y55.632 E0.01597
G1 X237.820 Y56.131 E0.01597
G1 X237.832 Y182.894 E3.97458
G1 X237.758 Y183.463 E0.01799
G1 X237.550 Y183.998 E0.01799
G1 X237.217 Y184.470 E0.01811
G1 X236.784 Y184.846 E0.01799
G1 X236.248 Y185.116 E0.01882
G1 X235.665 Y185.243 E0.01870
G1 X226.511 Y185.752 E0.28747
G1 X25.538 Y185.752 E6.30136
G1 X14.263 Y185.236 E0.35389
G1 X13.767 Y185.121 E0.01597
G1 X13.306 Y184.904 E0.01597
G1 X12.902 Y184.593 E0.01597
G1 X12.574 Y184.203 E0.01597
G1 X12.273 Y183.573 E0.02190
G1 X12.168 Y182.883 E0.02190
G1 X12.168 Y48.589 E4.21070
G1 X12.241 Y48.016 E0.01811
G1 X12.450 Y47.477 E0.01811
G1 X12.783 Y47.005 E0.01811
G1 X13.216 Y46.629 E0.01799
G1 X18.139 Y44.314 E0.17057
;WIPE_START
G1 F8640.000
G1 X23.840 Y43.495 E-1.33000
;WIPE_END
G1 E-0.07000 F2100.000
G1 Z0.400 F10800.000
G1 X214.541 Y57.100
M73 P0 R95
G1 Z0.200
G1 E1.40000 F2100.000
;TYPE:External perimeter
G1 F1200.000
G1 X214.557 Y56.704 E0.01243
G1 X214.591 Y56.498 E0.00654
G1 X214.690 Y56.153 E0.01125
G1 X214.878 Y55.756 E0.01377
G1 X215.080 Y55.461 E0.01120
G1 X215.215 Y55.307 E0.00642
G1 X215.362 Y55.165 E0.00641
G1 X215.645 Y54.946 E0.01121
G1 X215.996 Y54.753 E0.01257
G1 X216.370 Y54.622 E0.01242
G1 X216.574 Y54.577 E0.00655
G1 X216.931 Y54.541 E0.01125
G1 X217.369 Y54.568 E0.01377
G1 X217.719 Y54.647 E0.01123
G1 X217.915 Y54.716 E0.00652
G1 X218.270 Y54.893 E0.01244
G1 X218.562 Y55.099 E0.01121
G1 X218.718 Y55.238 E0.00654
G1 X218.976 Y55.534 E0.01232
G1 X219.093 Y55.707 E0.00653
G1 X219.258 Y56.024 E0.01121
G1 X219.387 Y56.404 E0.01260
G1 X219.455 Y56.843 E0.01392
G1 X219.434 Y57.357 E0.01613
G1 X219.331 Y57.788 E0.01389
G1 X219.192 Y58.118 E0.01125
G1 X219.089 Y58.300 E0.00655
G1 X218.853 Y58.619 E0.01243
G1 X218.566 Y58.898 E0.01257
G1 X218.274 Y59.105 E0.01121
G1 X218.095 Y59.203 E0.00641
G1 X217.907 Y59.287 E0.00643
G1 X217.567 Y59.394 E0.01120
G1 X217.132 Y59.457 E0.01377
G1 X216.773 Y59.450 E0.01125
G1 X216.566 Y59.422 E0.00654
G1 X216.183 Y59.321 E0.01244
G1 X215.820 Y59.159 E0.01246
G1 X215.641 Y59.051 E0.00654
G1 X215.357 Y58.832 E0.01125
G1 X215.059 Y58.510 E0.01375
G1 X214.880 Y58.247 E0.00997
G1 X214.767 Y58.032 E0.00763
G1 X214.688 Y57.842 E0.00645
G1 X214.590 Y57.498 E0.01121
G1 X214.549 Y57.160 E0.01069
G1 X214.191 Y56.915 F10800.000
;WIPE_START
G1 F8640.000
G1 X214.557 Y56.704 E-0.10523
G1 X214.591 Y56.498 E-0.04820
G1 X214.690 Y56.153 E-0.08285
G1 X214.878 Y55.756 E-0.10141
G1 X215.080 Y55.461 E-0.08249
G1 X215.215 Y55.307 E-0.04731
G1 X215.362 Y55.165 E-0.04720
G1 X215.645 Y54.946 E-0.08259
G1 X215.996 Y54.753 E-0.09255
G1 X216.370 Y54.622 E-0.09149
G1 X216.574 Y54.577 E-0.04827
G1 X216.931 Y54.541 E-0.08283
G1 X217.369 Y54.568 E-0.10141
G1 X217.719 Y54.647 E-0.08273
G1 X217.915 Y54.716 E-0.04800
G1 X218.270 Y54.893 E-0.09164
G1 X218.562 Y55.099 E-0.08259
G1 X218.598 Y55.132 E-0.01119
;WIPE_END
G1 E-0.07000 F2100.000
G1 Z0.400 F10800.000
G1 X212.887 Y49.387
G1 Z0.200
G1 E1.40000 F2100.000
;TYPE:Perimeter
G1 F1200.000
G1 X212.887 Y47.227 E0.06772
G1 X219.293 Y46.319 E0.20284
G1 X219.039 Y46.548 E0.01068
G1 X218.747 Y46.866 E0.01354
G1 X218.413 Y47.316 E0.01758
G1 X218.131 Y47.804 E0.01768
G1 X217.907 Y48.322 E0.01768
G1 X217.744 Y48.862 E0.01768
G1 X217.645 Y49.417 E0.01768
G1 X217.620 Y49.813 E0.01244
G1 X208.687 Y49.813 E0.28009
G1 X208.687 Y49.387 E0.01335
G1 X212.827 Y49.387 E0.12981
;WIPE_START
G1 F8640.000
G1 X212.887 Y47.227 E-0.49892
G1 X216.451 Y46.722 E-0.83108
;WIPE_END
G1 E-0.07000 F2100.000
G1 Z0.400 F10800.000
G1 X208.687 Y52.987
G1 Z0.200
G1 E1.40000 F2100.000
G1 F1200.000
G1 X218.645 Y52.987 E0.31222
G1 X218.883 Y53.291 E0.01211
G1 X219.293 Y53.692 E0.01798
G1 X219.852 Y54.111 E0.02190
G1 X220.472 Y54.450 E0.02215
G1 X221.131 Y54.694 E0.02204
G1 X221.822 Y54.843 E0.02215
G1 X222.523 Y54.889 E0.02204
G1 X223.220 Y54.837 E0.02189
G1 X223.644 Y54.752 E0.01357
G1 X224.049 Y54.638 E0.01321
G1 X224.445 Y54.484 E0.01332
G1 X224.825 Y54.302 E0.01321
G1 X225.189 Y54.083 E0.01332
G1 X225.531 Y53.837 E0.01321
G1 X225.852 Y53.559 E0.01332
G1 X226.147 Y53.257 E0.01321
G1 X226.415 Y52.928 E0.01332
G1 X226.653 Y52.581 E0.01321
G1 X226.861 Y52.210 E0.01332
G1 X227.035 Y51.827 E0.01321
G1 X227.178 Y51.422 E0.01345
G1 X227.309 Y50.882 E0.01742
G1 X227.367 Y50.461 E0.01334
G1 X227.389 Y50.037 E0.01332
G1 X227.374 Y49.616 E0.01321
G1 X227.323 Y49.194 E0.01332
G1 X227.234 Y48.782 E0.01321
G1 X227.112 Y48.375 E0.01332
G1 X226.953 Y47.984 E0.01323
G1 X226.761 Y47.602 E0.01342
G1 X226.546 Y47.267 E0.01247
G1 X229.297 Y48.397 E0.09325
G1 X234.267 Y56.698 E0.30335
G1 X234.267 Y59.713 E0.09454
G1 X228.809 Y59.713 E0.17115
G1 X229.041 Y59.640 E0.00763
G1 X229.263 Y59.541 E0.00761
G1 X229.474 Y59.425 E0.00757
G1 X229.807 Y59.189 E0.01280
G1 X230.138 Y58.868 E0.01445
G1 X230.406 Y58.506 E0.01413
G1 X230.531 Y58.285 E0.00795
G1 X230.690 Y57.906 E0.01290
G1 X230.810 Y57.409 E0.01601
G1 X230.833 Y56.822 E0.01843
G1 X230.755 Y56.314 E0.01610
G1 X230.606 Y55.875 E0.01454
G1 X230.417 Y55.513 E0.01280
G1 X230.275 Y55.303 E0.00794
G1 X229.986 Y54.973 E0.01377
G1 X229.797 Y54.804 E0.00794
G1 X229.464 Y54.568 E0.01280
G1 X229.062 Y54.368 E0.01409
G1 X228.823 Y54.284 E0.00793
G1 X228.423 Y54.193 E0.01287
G1 X227.924 Y54.162 E0.01569
G1 X227.514 Y54.204 E0.01289
G1 X227.266 Y54.258 E0.00796
G1 X226.842 Y54.408 E0.01412
G1 X226.438 Y54.630 E0.01445
G1 X226.114 Y54.879 E0.01280
G1 X225.782 Y55.230 E0.01516
G1 X225.550 Y55.567 E0.01284
G1 X225.336 Y56.020 E0.01569
G1 X225.223 Y56.415 E0.01290
G1 X225.182 Y56.665 E0.00795
G1 X225.163 Y57.115 E0.01413
G1 X225.220 Y57.573 E0.01446
G1 X225.332 Y57.966 E0.01280
G1 X225.556 Y58.442 E0.01651
G1 X225.763 Y58.746 E0.01153
G1 X226.102 Y59.111 E0.01563
G1 X226.428 Y59.363 E0.01291
G1 X226.645 Y59.494 E0.00794
G1 X227.057 Y59.678 E0.01416
G1 X227.190 Y59.713 E0.00431
G1 X225.713 Y59.713 E0.04631
G1 X225.713 Y59.813 E0.00314
G1 X219.287 Y59.813 E0.20148
G1 X219.287 Y59.713 E0.00314
G1 X217.809 Y59.713 E0.04635
G1 X218.041 Y59.640 E0.00763
G1 X218.263 Y59.541 E0.00761
G1 X218.474 Y59.425 E0.00757
G1 X218.807 Y59.189 E0.01280
G1 X219.138 Y58.868 E0.01445
G1 X219.406 Y58.506 E0.01413
G1 X219.531 Y58.285 E0.00795
G1 X219.690 Y57.906 E0.01290
G1 X219.810 Y57.409 E0.01601
G1 X219.833 Y56.822 E0.01843
G1 X219.755 Y56.314 E0.01610
G1 X219.606 Y55.875 E0.01454
G1 X219.417 Y55.513 E0.01280
G1 X219.275 Y55.303 E0.00794
G1 X218.986 Y54.973 E0.01377
G1 X218.797 Y54.804 E0.00794
G1 X218.464 Y54.568 E0.01280
G1 X218.062 Y54.368 E0.01409
G1 X217.823 Y54.284 E0.00793
G1 X217.423 Y54.193 E0.01287
G1 X216.924 Y54.162 E0.01569
G1 X216.514 Y54.204 E0.01289
G1 X216.266 Y54.258 E0.00796
G1 X215.842 Y54.408 E0.01412
G1 X215.438 Y54.630 E0.01445
G1 X215.114 Y54.879 E0.01280
G1 X214.782 Y55.230 E0.01516
G1 X214.550 Y55.567 E0.01284
G1 X214.336 Y56.020 E0.01569
G1 X214.223 Y56.415 E0.01290
G1 X214.182 Y56.665 E0.00795
G1 X214.163 Y57.115 E0.01413
G1 X214.220 Y57.573 E0.01446
G1 X214.332 Y57.966 E0.01280
G1 X214.556 Y58.442 E0.01651
G1 X214.763 Y58.746 E0.01153
G1 X215.102 Y59.111 E0.01563
G1 X215.428 Y59.363 E0.01291
G1 X215.645 Y59.494 E0.00794
G1 X216.057 Y59.678 E0.01416
G1 X216.190 Y59.713 E0.00431
G1 X208.687 Y59.713 E0.23524
G1 X208.687 Y53.047 E0.20900
;WIPE_START
G1 F8640.000
G1 X214.447 Y53.012 E-1.33000
;WIPE_END
G1 E-0.07000 F2100.000
G1 Z0.400 F10800.000
G1 X225.690 Y56.153
G1 Z0.200
G1 E1.40000 F2100.000
;TYPE:External perimeter
G1 F1200.000
G1 X225.878 Y55.756 E0.01377
G1 X226.080 Y55.461 E0.01120
G1 X226.215 Y55.307 E0.00642
G1 X226.362 Y55.165 E0.00641
G1 X226.645 Y54.946 E0.01121
G1 X226.996 Y54.753 E0.01257
G1 X227.370 Y54.622 E0.01242
G1 X227.574 Y54.577 E0.00655
G1 X227.931 Y54.541 E0.01125
G1 X228.369 Y54.568 E0.01377
G1 X228.719 Y54.647 E0.01123
G1 X228.915 Y54.716 E0.00652
G1 X229.270 Y54.893 E0.01244
G1 X229.562 Y55.099 E0.01121
G1 X229.718 Y55.238 E0.00654
G1 X229.976 Y55.534 E0.01232
G1 X230.093 Y55.707 E0.00653
G1 X230.258 Y56.024 E0.01121
G1 X230.387 Y56.404 E0.01260
G1 X230.455 Y56.843 E0.01392
G1 X230.434 Y57.357 E0.01613
G1 X230.331 Y57.788 E0.01389
G1 X230.192 Y58.118 E0.01125
G1 X230.089 Y58.300 E0.00655
G1 X229.853 Y58.619 E0.01243
G1 X229.566 Y58.898 E0.01257
G1 X229.274 Y59.105 E0.01121
G1 X229.095 Y59.203 E0.00641
G1 X228.907 Y59.287 E0.00643
G1 X228.567 Y59.394 E0.01120
G1 X228.132 Y59.457 E0.01377
G1 X227.773 Y59.450 E0.01125
G1 X227.566 Y59.422 E0.00654
G1 X227.183 Y59.321 E0.01244
G1 X226.820 Y59.159 E0.01246
G1 X226.641 Y59.051 E0.00654
G1 X226.357 Y58.832 E0.01125
G1 X226.059 Y58.510 E0.01375
G1 X225.880 Y58.247 E0.00997
G1 X225.767 Y58.032 E0.00763
G1 X225.688 Y57.842 E0.00645
G1 X225.590 Y57.498 E0.01121
G1 X225.541 Y57.100 E0.01257
G1 X225.557 Y56.704 E0.01243
G1 X225.591 Y56.498 E0.00654
G1 X225.673 Y56.211 E0.00937
G1 X225.440 Y55.840 F10800.000
;WIPE_START
G1 F8640.000
G1 X225.878 Y55.756 E-0.11510
G1 X226.080 Y55.461 E-0.08249
G1 X226.215 Y55.307 E-0.04731
G1 X226.362 Y55.165 E-0.04720
G1 X226.645 Y54.946 E-0.08259
G1 X226.996 Y54.753 E-0.09255
G1 X227.370 Y54.622 E-0.09149
G1 X227.574 Y54.577 E-0.04827
G1 X227.931 Y54.541 E-0.08283
G1 X228.369 Y54.568 E-0.10141
G1 X228.719 Y54.647 E-0.08273
G1 X228.915 Y54.716 E-0.04800
G1 X229.270 Y54.893 E-0.09164
G1 X229.562 Y55.099 E-0.08259
G1 X229.718 Y55.238 E-0.04818
G1 X229.976 Y55.534 E-0.09070
G1 X230.093 Y55.707 E-0.04809
G1 X230.187 Y55.886 E-0.04681
;WIPE_END
G1 E-0.07000 F2100.000
G1 Z0.400 F10800.000
G1 X212.510 Y49.010
G1 Z0.200
G1 E1.40000 F2100.000
G1 F1200.000
G1 X212.510 Y46.900 E0.06616
G1 X219.364 Y45.929 E0.21704
G1 X219.853 Y45.833 E0.01563
G1 X220.800 Y45.577 E0.03075
G1 X221.263 Y45.471 E0.01489
G1 X222.216 Y45.344 E0.03017
G1 X222.707 Y45.340 E0.01537
G1 X222.950 Y45.357 E0.00763
G1 X223.430 Y45.429 E0.01521
G1 X223.904 Y45.552 E0.01537
G1 X224.134 Y45.631 E0.00763
G1 X224.584 Y45.827 E0.01538
G1 X225.238 Y46.154 E0.02293
G1 X226.089 Y46.638 E0.03069
G1 X226.538 Y46.856 E0.01565
G1 X229.556 Y48.096 E0.10231
G1 X234.645 Y56.593 E0.31054
G1 X234.645 Y60.090 E0.10963
G1 X226.090 Y60.090 E0.26822
M73 Q1 S96
G1 X226.090 Y60.190 E0.00314
G1 X218.910 Y60.190 E0.22512
G1 X218.910 Y60.090 E0.00314
G1 X208.310 Y60.090 E0.33236
M73 P1 R95
G1 X208.310 Y52.610 E0.23453
G1 X218.828 Y52.610 E0.32979
G1 X219.164 Y53.039 E0.01708
G1 X219.539 Y53.405 E0.01642
G1 X220.057 Y53.793 E0.02029
G1 X220.629 Y54.106 E0.02044
G1 X221.237 Y54.331 E0.02034
G1 X221.874 Y54.469 E0.02044
G1 X222.521 Y54.511 E0.02034
G1 X223.168 Y54.463 E0.02034
G1 X223.556 Y54.385 E0.01238
G1 X223.930 Y54.280 E0.01219
G1 X224.295 Y54.138 E0.01229
G1 X224.645 Y53.969 E0.01219
G1 X224.981 Y53.767 E0.01229
G1 X225.297 Y53.541 E0.01219
G1 X225.593 Y53.284 E0.01229
G1 X225.865 Y53.006 E0.01219
G1 X226.113 Y52.702 E0.01229
G1 X226.332 Y52.381 E0.01219
G1 X226.524 Y52.040 E0.01229
G1 X226.685 Y51.686 E0.01219
G1 X226.816 Y51.315 E0.01234
G1 X226.938 Y50.812 E0.01622
G1 X226.991 Y50.425 E0.01224
G1 X227.012 Y50.034 E0.01229
G1 X226.997 Y49.645 E0.01219
G1 X226.950 Y49.256 E0.01229
G1 X226.869 Y48.876 E0.01219
G1 X226.756 Y48.501 E0.01229
G1 X226.610 Y48.140 E0.01220
G1 X226.433 Y47.789 E0.01232
G1 X226.220 Y47.458 E0.01234
G1 X225.965 Y47.147 E0.01261
G1 X225.666 Y46.883 E0.01251
G1 X225.343 Y46.660 E0.01230
G1 X224.279 Y46.072 E0.03814
G1 X223.927 Y45.932 E0.01186
G1 X223.572 Y45.823 E0.01165
G1 X223.205 Y45.747 E0.01174
G1 X222.835 Y45.701 E0.01169
G1 X222.339 Y45.691 E0.01555
G1 X221.844 Y45.738 E0.01558
G1 X221.131 Y45.888 E0.02287
G1 X220.652 Y46.018 E0.01555
G1 X220.284 Y46.147 E0.01222
G1 X219.927 Y46.323 E0.01248
G1 X219.597 Y46.552 E0.01260
G1 X219.305 Y46.816 E0.01234
G1 X219.038 Y47.106 E0.01237
G1 X218.728 Y47.523 E0.01628
G1 X218.468 Y47.974 E0.01632
G1 X218.262 Y48.451 E0.01632
G1 X218.112 Y48.950 E0.01632
G1 X218.020 Y49.462 E0.01632
G1 X217.988 Y49.981 E0.01630
G1 X217.998 Y50.190 E0.00656
G1 X208.310 Y50.190 E0.30375
G1 X208.310 Y49.010 E0.03700
G1 X212.450 Y49.010 E0.12981
G1 X212.908 Y48.974 F10800.000
;WIPE_START
G1 F8640.000
G1 X212.510 Y46.900 E-0.48745
G1 X216.123 Y46.388 E-0.84255
;WIPE_END
G1 E-0.07000 F2100.000
G1 Z0.400 F10800.000
G1 X213.344 Y49.700
G1 Z0.200
G1 E1.40000 F2100.000
;TYPE:Solid infill
G1 F1200.000
G1 X213.170 Y49.526 E0.00781
G1 X213.170 Y48.987 E0.01708
G1 X213.713 Y49.530 E0.02436
G1 X214.252 Y49.530 E0.01708
G1 X213.170 Y48.448 E0.04852
G1 X213.170 Y47.909 E0.01708
G1 X214.791 Y49.530 E0.07267
G1 X215.330 Y49.530 E0.01708
G1 X213.260 Y47.460 E0.09278
G1 X213.732 Y47.393 E0.01511
G1 X215.869 Y49.530 E0.09578
G1 X216.408 Y49.530 E0.01708
G1 X214.204 Y47.326 E0.09878
G1 X214.676 Y47.259 E0.01511
G1 X216.947 Y49.530 E0.10178
G1 X217.354 Y49.530 E0.01290
G1 X217.362 Y49.406 E0.00394
G1 X215.149 Y47.192 E0.09921
G1 X215.621 Y47.125 E0.01511
G1 X217.442 Y48.947 E0.08162
G1 X217.552 Y48.518 E0.01402
G1 X216.093 Y47.059 E0.06542
G1 X216.565 Y46.992 E0.01511
G1 X217.688 Y48.115 E0.05035
G1 X217.851 Y47.739 E0.01299
G1 X217.037 Y46.925 E0.03648
G1 X217.509 Y46.858 E0.01511
G1 X218.043 Y47.391 E0.02391
G1 X218.250 Y47.060 E0.01239
G1 X217.981 Y46.791 E0.01206
G1 X218.453 Y46.724 E0.01511
G1 X218.601 Y46.872 E0.00664
;WIPE_START
G1 F8640.000
G1 X218.453 Y46.724 E-0.04835
G1 X217.981 Y46.791 E-0.11010
G1 X218.250 Y47.060 E-0.08788
G1 X218.043 Y47.391 E-0.09028
G1 X217.509 Y46.858 E-0.17419
G1 X217.037 Y46.925 E-0.11010
G1 X217.851 Y47.739 E-0.26580
G1 X217.688 Y48.115 E-0.09466
G1 X216.621 Y47.047 E-0.34863
;WIPE_END
G1 E-0.07000 F2100.000
G1 Z0.400 F10800.000
G1 X219.460 Y46.232
G1 Z0.200
G1 E1.40000 F2100.000
;TYPE:Gap fill
G1 F1200.000
G1 X220.175 Y45.965 E0.00635
;WIPE_START
G1 F8640.000
G1 X219.460 Y46.232 E-0.17617
;WIPE_END
G1 E-1.22383 F2100.000
G1 Z0.400 F10800.000
G1 X225.789 Y46.710
G1 Z0.200
G1 E1.40000 F2100.000
G1 F1200.000
G1 X225.981 Y46.847 E0.00183
G1 X226.066 Y46.903 E0.00102
G1 X226.404 Y47.144 E0.00526
;WIPE_START
G1 F8640.000
G1 X226.066 Y46.903 E-0.09577
;WIPE_END
G1 E-1.30423 F2100.000
G1 Z0.400 F10800.000
G1 X230.377 Y50.420
G1 Z0.200
G1 E1.40000 F2100.000
;TYPE:Solid infill
G1 F1200.000
G1 X228.215 Y48.258 E0.09627
G1 X227.306 Y47.885 E0.03094
