; generated by PrusaSlicer 2.3.0-beta2+ on 2020-12-15 at 10:22:32 UTC

; 

; external perimeters extrusion width = 0.45mm
; perimeters extrusion width = 0.45mm
; infill extrusion width = 0.45mm
; solid infill extrusion width = 0.45mm
; top infill extrusion width = 0.40mm
; first layer extrusion width = 0.42mm

M73 P0 R19
M73 Q0 S19
M201 X1000 Y1000 Z200 E5000 ; sets maximum accelerations, mm/sec^2
M203 X200 Y200 Z12 E120 ; sets maximum feedrates, mm/sec
M204 P1250 R1250 T1250 ; sets acceleration (P, T) and retract acceleration (R), mm/sec^2
M205 X8.00 Y8.00 Z0.40 E4.50 ; sets the jerk limits, mm/sec
M205 S0 T0 ; sets the minimum extruding and travel feed rate, mm/sec
M107
;TYPE:Custom
M862.3 P "MK3S" ; printer model check
M862.1 P0.4 ; nozzle diameter check
M115 U3.9.1 ; tell printer latest fw version
G90 ; use absolute coordinates
M83 ; extruder relative mode
M104 S240 ; set extruder temp
M140 S85 ; set bed temp
M190 S85 ; wait for bed temp
M109 S240 ; wait for extruder temp
G28 W ; home all without mesh bed level
G80 ; mesh bed leveling
G1 Y-3.0 F1000.0 ; go outside print area
G92 E0.0
G1 X60.0 E9.0 F1000.0 ; intro line
G1 X100.0 E12.5 F1000.0 ; intro line
G92 E0.0
M221 S95

; Don't change E values below. Excessive value can damage the printer.

M907 E538 ; set extruder motor current
G21 ; set units to millimeters
G90 ; use absolute coordinates
M83 ; use relative distances for extrusion
M900 K0.08 ; Filament gcode LA 1.5
M900 K45 ; Filament gcode LA 1.0
;LAYER_CHANGE
;Z:0.2
;HEIGHT:0.2
;BEFORE_LAYER_CHANGE
G92 E0.0
;0.2


G1 E-1.40000 F2100.000
G1 Z0.200 F10800.000
;AFTER_LAYER_CHANGE
;0.2
G1 Z0.400
G1 X111.096 Y107.988
G1 Z0.200
G1 E1.40000 F2100.000
M204 S1000
;TYPE:Skirt
G1 F1200.000
G1 X110.720 Y107.076 E0.03094
G1 X110.660 Y106.547 E0.01669
G1 X110.659 Y103.500 E0.09553
G1 X110.747 Y102.810 E0.02180
G1 X111.007 Y102.161 E0.02192
G1 X111.418 Y101.601 E0.02180
G1 X111.957 Y101.162 E0.02180
G1 X134.676 Y88.044 E0.82253
G1 X135.328 Y87.782 E0.02205
G1 X136.026 Y87.694 E0.02205
G1 X136.632 Y87.762 E0.01912
G1 X137.211 Y87.964 E0.01924
G1 X140.216 Y89.704 E0.10889
G1 X140.618 Y90.054 E0.01669
G1 X140.947 Y90.477 E0.01681
G1 X141.187 Y90.952 E0.01669
G1 X141.331 Y91.469 E0.01681
G1 X141.373 Y118.052 E0.83351
G1 X141.304 Y118.666 E0.01937
G1 X141.099 Y119.249 E0.01937
G1 X140.770 Y119.772 E0.01937
G1 X140.333 Y120.208 E0.01937
G1 X137.224 Y122.030 E0.11297
M73 Q1 S19
G1 X136.637 Y122.236 E0.01950
G1 X136.020 Y122.306 E0.01950
G1 X135.322 Y122.216 E0.02205
G1 X134.674 Y121.955 E0.02192
G1 X111.773 Y108.712 E0.82945
M73 P1 R19
G1 X111.137 Y108.032 E0.02919
G1 X111.410 Y107.777 F10800.000
G1 F1200.000
G1 X111.081 Y106.960 E0.02763
G1 X111.036 Y103.500 E0.10849
G1 X111.113 Y102.901 E0.01894
G1 X111.337 Y102.344 E0.01882
G1 X111.695 Y101.858 E0.01894
G1 X112.164 Y101.478 E0.01894
G1 X134.855 Y88.376 E0.82154
G1 X135.419 Y88.148 E0.01906
G1 X136.025 Y88.071 E0.01917
G1 X136.558 Y88.132 E0.01680
G1 X137.063 Y88.311 E0.01680
G1 X139.990 Y90.006 E0.10605
G1 X140.633 Y90.685 E0.02931
G1 X140.964 Y91.559 E0.02931
G1 X140.996 Y118.052 E0.83068
G1 X140.935 Y118.589 E0.01692
G1 X140.756 Y119.094 E0.01680
G1 X140.466 Y119.549 E0.01692
G1 X140.080 Y119.927 E0.01692
G1 X137.071 Y121.684 E0.10926
G1 X136.560 Y121.867 E0.01704
G1 X136.020 Y121.929 E0.01704
G1 X135.417 Y121.851 E0.01906
G1 X134.854 Y121.623 E0.01906
G1 X112.002 Y108.413 E0.82761
G1 X111.451 Y107.821 E0.02534
;WIPE_START
G1 F8640.000
G1 X111.081 Y106.960 E-0.21644
G1 X111.036 Y103.500 E-0.79898
G1 X111.113 Y102.901 E-0.13946
G1 X111.337 Y102.344 E-0.13859
G1 X111.430 Y102.217 E-0.03652
;WIPE_END
G1 E-0.07000 F2100.000
G1 Z0.400 F10800.000
G1 X114.833 Y105.313
G1 Z0.200
G1 E1.40000 F2100.000
;TYPE:Perimeter
G1 F1200.000
G1 X114.833 Y104.687 E0.01962
G1 X122.429 Y104.687 E0.23818
G1 X122.663 Y103.410 E0.04069
G1 X122.882 Y102.676 E0.02404
G1 X123.117 Y102.102 E0.01944
G1 X123.264 Y101.805 E0.01039
G1 X123.618 Y101.206 E0.02181
G1 X124.076 Y100.592 E0.02401
G1 X124.548 Y100.081 E0.02181
G1 X124.790 Y99.855 E0.01039
G1 X125.273 Y99.467 E0.01944
G1 X125.914 Y99.046 E0.02401
G1 X126.598 Y98.702 E0.02401
G1 X127.176 Y98.478 E0.01944
G1 X127.493 Y98.381 E0.01039
G1 X128.171 Y98.228 E0.02181
G1 X128.932 Y98.138 E0.02401
G1 X129.627 Y98.131 E0.02181
G1 X129.958 Y98.152 E0.01039
G1 X130.572 Y98.235 E0.01944
G1 X131.318 Y98.413 E0.02404
G1 X132.541 Y98.849 E0.04069
G1 X136.339 Y92.270 E0.23818
G1 X136.881 Y92.583 E0.01962
G1 X133.083 Y99.162 E0.23818
G1 X134.073 Y100.004 E0.04075
G1 X134.550 Y100.502 E0.02161
M73 P1 R18
G1 X134.974 Y101.045 E0.02163
G1 X135.341 Y101.627 E0.02158
G1 X135.679 Y102.315 E0.02401
G1 X135.916 Y102.961 E0.02158
G1 X136.088 Y103.629 E0.02163
G1 X136.191 Y104.309 E0.02156
G1 X136.224 Y105.076 E0.02408
G1 X136.191 Y105.696 E0.01944
G1 X136.073 Y106.438 E0.02357
G1 X135.917 Y107.036 E0.01939
G1 X135.646 Y107.762 E0.02428
G1 X135.507 Y108.061 E0.01036
G1 X135.205 Y108.603 E0.01943
G1 X134.763 Y109.239 E0.02429
G1 X134.554 Y109.494 E0.01034
G1 X134.122 Y109.949 E0.01968
G1 X133.814 Y110.229 E0.01304
G1 X133.077 Y110.828 E0.02978
G1 X136.881 Y117.417 E0.23853
G1 X136.339 Y117.730 E0.01962
G1 X132.541 Y111.151 E0.23818
G1 X131.317 Y111.588 E0.04075
G1 X130.647 Y111.751 E0.02161
G1 X129.964 Y111.847 E0.02163
G1 X129.277 Y111.874 E0.02158
G1 X128.512 Y111.823 E0.02401
G1 X127.834 Y111.705 E0.02158
G1 X127.170 Y111.520 E0.02163
G1 X126.530 Y111.269 E0.02156
G1 X125.848 Y110.914 E0.02408
G1 X125.329 Y110.576 E0.01944
G1 X125.061 Y110.372 E0.01055
G1 X124.745 Y110.103 E0.01303
G1 X124.304 Y109.668 E0.01939
G1 X123.811 Y109.071 E0.02428
G1 X123.622 Y108.800 E0.01036
G1 X123.303 Y108.269 E0.01943
G1 X122.973 Y107.568 E0.02429
G1 X122.858 Y107.259 E0.01034
G1 X122.680 Y106.657 E0.01968
G1 X122.590 Y106.251 E0.01304
G1 X122.440 Y105.313 E0.02978
G1 X114.893 Y105.313 E0.23665
;WIPE_START
M73 Q2 S19
G1 F8640.000
G1 X114.833 Y104.687 E-0.14517
M73 P2 R18
G1 X119.964 Y104.687 E-1.18483
;WIPE_END
G1 E-0.07000 F2100.000
G1 Z0.400 F10800.000
G1 X133.567 Y99.078
G1 Z0.200
G1 E1.40000 F2100.000
;TYPE:External perimeter
G1 F1200.000
G1 X134.332 Y99.729 E0.03150
G1 X134.835 Y100.255 E0.02281
G1 X135.283 Y100.828 E0.02282
G1 X135.671 Y101.443 E0.02280
G1 X136.026 Y102.166 E0.02526
G1 X136.277 Y102.849 E0.02280
G1 X136.458 Y103.554 E0.02282
G1 X136.567 Y104.272 E0.02279
G1 X136.601 Y105.078 E0.02529
G1 X136.567 Y105.729 E0.02044
G1 X136.521 Y106.087 E0.01132
G1 X136.441 Y106.520 E0.01380
G1 X136.277 Y107.150 E0.02042
G1 X135.994 Y107.908 E0.02536
G1 X135.843 Y108.233 E0.01125
G1 X135.526 Y108.803 E0.02044
G1 X135.064 Y109.467 E0.02536
G1 X134.837 Y109.744 E0.01124
G1 X134.386 Y110.219 E0.02053
G1 X134.061 Y110.515 E0.01380
G1 X133.565 Y110.918 E0.02004
G1 X137.396 Y117.555 E0.24028
G1 X136.201 Y118.245 E0.04327
G1 X132.371 Y111.612 E0.24015
M73 Q2 S18
G1 X131.425 Y111.949 E0.03150
G1 X130.719 Y112.122 E0.02281
G1 X129.998 Y112.223 E0.02282
G1 X129.271 Y112.252 E0.02280
G1 X128.468 Y112.198 E0.02526
G1 X127.751 Y112.073 E0.02280
G1 X127.050 Y111.878 E0.02282
G1 X126.373 Y111.613 E0.02279
G1 X125.658 Y111.240 E0.02529
G1 X125.112 Y110.884 E0.02044
G1 X124.489 Y110.381 E0.02510
G1 X124.026 Y109.923 E0.02042
G1 X123.511 Y109.299 E0.02536
G1 X123.305 Y109.005 E0.01125
G1 X122.970 Y108.446 E0.02044
G1 X122.626 Y107.714 E0.02536
G1 X122.500 Y107.379 E0.01124
G1 X122.314 Y106.751 E0.02053
G1 X122.220 Y106.321 E0.01380
G1 X122.119 Y105.690 E0.02004
G1 X114.456 Y105.690 E0.24028
G1 X114.456 Y104.310 E0.04327
G1 X122.115 Y104.310 E0.24015
G1 X122.295 Y103.322 E0.03148
G1 X122.526 Y102.550 E0.02527
G1 X122.773 Y101.947 E0.02044
G1 X122.932 Y101.625 E0.01126
G1 X123.304 Y100.997 E0.02288
G1 X123.785 Y100.351 E0.02526
G1 X124.280 Y99.815 E0.02288
G1 X124.543 Y99.570 E0.01126
G1 X125.051 Y99.161 E0.02044
G1 X125.725 Y98.719 E0.02526
G1 X126.444 Y98.357 E0.02526
G1 X127.052 Y98.122 E0.02044
G1 X127.396 Y98.016 E0.01126
G1 X128.107 Y97.855 E0.02288
G1 X128.908 Y97.762 E0.02526
G1 X129.637 Y97.753 E0.02288
G1 X129.996 Y97.776 E0.01126
G1 X130.642 Y97.864 E0.02044
G1 X131.426 Y98.051 E0.02527
G1 X132.371 Y98.388 E0.03148
G1 X136.201 Y91.755 E0.24015
G1 X137.396 Y92.445 E0.04327
G1 X133.597 Y99.026 E0.23827
G1 X133.346 Y99.412 F10800.000
G1 X132.807 Y99.014
;TYPE:Gap fill
G1 F1200.000
G1 X136.516 Y92.590 E0.15344
;WIPE_START
G1 F8640.000
G1 X133.636 Y97.578 E-1.33000
;WIPE_END
G1 E-0.07000 F2100.000
G1 Z0.400 F10800.000
G1 X135.067 Y101.405
G1 Z0.200
G1 E1.40000 F2100.000
;TYPE:Solid infill
G1 F1200.000
G1 X133.832 Y100.170 E0.05625
G1 X132.962 Y99.430 E0.03678
G1 X132.369 Y99.088 E0.02203
G1 X132.110 Y98.996 E0.00885
G1 X135.301 Y102.187 E0.14530
G1 X135.419 Y102.426 E0.00859
G1 X135.658 Y103.091 E0.02274
G1 X131.259 Y98.692 E0.20029
G1 X130.537 Y98.518 E0.02391
G1 X135.829 Y103.810 E0.24097
G1 X135.913 Y104.442 E0.02053
G1 X129.903 Y98.432 E0.27366
G1 X129.341 Y98.417 E0.01812
G1 X135.938 Y105.014 E0.30041
G1 X135.916 Y105.540 E0.01693
G1 X128.813 Y98.437 E0.32340
G1 X128.323 Y98.494 E0.01589
G1 X135.852 Y106.024 E0.34284
G1 X135.768 Y106.487 E0.01516
G1 X127.867 Y98.586 E0.35975
G1 X127.430 Y98.696 E0.01453
G1 X135.655 Y106.921 E0.37453
G1 X135.508 Y107.323 E0.01375
G1 X127.025 Y98.840 E0.38626
M73 Q3 S18
G1 X126.637 Y98.999 E0.01352
G1 X135.355 Y107.717 E0.39698
M73 P3 R18
G1 X135.172 Y108.081 E0.01313
G1 X126.273 Y99.182 E0.40521
G1 X125.922 Y99.379 E0.01295
G1 X134.976 Y108.433 E0.41227
G1 X134.753 Y108.758 E0.01268
G1 X125.592 Y99.596 E0.41718
G1 X125.276 Y99.828 E0.01261
G1 X134.528 Y109.080 E0.42130
G1 X134.276 Y109.376 E0.01251
G1 X124.972 Y100.072 E0.42363
G1 X124.693 Y100.340 E0.01247
G1 X134.009 Y109.657 E0.42420
G1 X133.729 Y109.924 E0.01247
G1 X124.430 Y100.625 E0.42343
G1 X124.181 Y100.924 E0.01252
G1 X133.433 Y110.175 E0.42125
G1 X133.131 Y110.421 E0.01253
G1 X123.947 Y101.238 E0.41814
G1 X123.732 Y101.570 E0.01274
G1 X132.676 Y110.513 E0.40725
G1 X132.574 Y110.495 E0.00331
G1 X132.572 Y110.510 E0.00051
G1 X132.459 Y110.480 E0.00374
G1 X132.383 Y110.768 E0.00958
G1 X123.528 Y101.913 E0.40319
G1 X123.349 Y102.282 E0.01319
G1 X132.082 Y111.015 E0.39764
G1 X131.678 Y111.159 E0.01380
G1 X123.190 Y102.670 E0.38651
G1 X123.055 Y103.084 E0.01399
G1 X131.274 Y111.303 E0.37424
G1 X130.838 Y111.414 E0.01450
G1 X122.932 Y103.508 E0.35997
G1 X122.848 Y103.971 E0.01515
G1 X130.380 Y111.503 E0.34297
G1 X129.896 Y111.567 E0.01572
M73 Q4 S18
G1 X122.763 Y104.434 E0.32479
M73 P4 R18
G1 X122.727 Y104.629 E0.00639
G1 X123.045 Y104.946 E0.01444
G1 X122.891 Y105.110 E0.00723
G1 X129.369 Y111.587 E0.29496
G1 X128.792 Y111.558 E0.01859
G1 X122.761 Y105.527 E0.27462
G1 X122.865 Y106.179 E0.02126
G1 X128.161 Y111.475 E0.24113
G1 X127.897 Y111.429 E0.00864
G1 X127.440 Y111.301 E0.01528
G1 X123.050 Y106.911 E0.19990
G1 X123.234 Y107.458 E0.01857
G1 X123.399 Y107.809 E0.01249
G1 X126.553 Y110.962 E0.14361
G1 X125.991 Y110.670 E0.02041
G1 X125.495 Y110.347 E0.01905
G1 X124.941 Y109.898 E0.02296
G1 X123.620 Y108.577 E0.06016
;WIPE_START
G1 F8640.000
G1 X124.941 Y109.898 E-0.43141
G1 X125.495 Y110.347 E-0.16469
G1 X125.991 Y110.670 E-0.13665
G1 X126.553 Y110.962 E-0.14636
G1 X125.173 Y109.582 E-0.45089
;WIPE_END
G1 E-0.07000 F2100.000
G1 Z0.400 F10800.000
G1 X122.574 Y104.876
G1 Z0.200
G1 E1.40000 F2100.000
;TYPE:Gap fill
G1 F1200.000
G1 X122.455 Y105.000 E0.00249
G1 X115.021 Y105.000 E0.10769
;WIPE_START
G1 F8640.000
G1 X120.781 Y105.000 E-1.33000
;WIPE_END
G1 E-0.07000 F2100.000
G1 Z0.400 F10800.000
G1 X132.632 Y110.931
G1 Z0.200
G1 E1.40000 F2100.000
G1 F1200.000
G1 X132.751 Y110.963 E0.00178
G1 X132.775 Y110.968 E0.00043
G1 X132.799 Y110.972 E0.00051
G1 X136.516 Y117.410 E0.15377
;LAYER_CHANGE
;Z:0.4
;HEIGHT:0.2
;BEFORE_LAYER_CHANGE
G92 E0.0
;0.4


;WIPE_START
G1 F8640.000
G1 X133.636 Y112.422 E-1.33000
;WIPE_END
G1 E-0.07000 F2100.000
G1 Z0.400 F10800.000
;AFTER_LAYER_CHANGE
;0.4
M104 S250 ; set temperature
M140 S90 ; set bed temperature
G1 Z0.600
G1 X111.096 Y107.988
G1 Z0.400
G1 E1.40000 F2100.000
;TYPE:Skirt
G1 F2818
G1 X110.720 Y107.076 E0.03094
G1 X110.660 Y106.547 E0.01669
G1 X110.659 Y103.500 E0.09553
G1 X110.747 Y102.810 E0.02180
G1 X111.007 Y102.161 E0.02192
G1 X111.418 Y101.601 E0.02180
G1 X111.957 Y101.162 E0.02180
G1 X134.676 Y88.044 E0.82253
G1 X135.328 Y87.782 E0.02205
G1 X136.026 Y87.694 E0.02205
G1 X136.632 Y87.762 E0.01912
G1 X137.211 Y87.964 E0.01924
G1 X140.216 Y89.704 E0.10889
G1 X140.618 Y90.054 E0.01669
G1 X140.947 Y90.477 E0.01681
G1 X141.187 Y90.952 E0.01669
G1 X141.331 Y91.469 E0.01681
G1 X141.373 Y118.052 E0.83351
G1 X141.304 Y118.666 E0.01937
G1 X141.099 Y119.249 E0.01937
G1 X140.770 Y119.772 E0.01937
G1 X140.333 Y120.208 E0.01937
G1 X137.224 Y122.030 E0.11297
G1 X136.637 Y122.236 E0.01950
G1 X136.020 Y122.306 E0.01950
G1 X135.322 Y122.216 E0.02205
G1 X134.674 Y121.955 E0.02192
G1 X111.773 Y108.712 E0.82945
G1 X111.137 Y108.032 E0.02919
G1 X111.410 Y107.777 F10800.000
G1 F2818
G1 X111.081 Y106.960 E0.02763
G1 X111.036 Y103.500 E0.10849
G1 X111.113 Y102.901 E0.01894
G1 X111.337 Y102.344 E0.01882
G1 X111.695 Y101.858 E0.01894
G1 X112.164 Y101.478 E0.01894
G1 X134.855 Y88.376 E0.82154
G1 X135.419 Y88.148 E0.01906
G1 X136.025 Y88.071 E0.01917
G1 X136.558 Y88.132 E0.01680
G1 X137.063 Y88.311 E0.01680
G1 X139.990 Y90.006 E0.10605
G1 X140.633 Y90.685 E0.02931
G1 X140.964 Y91.559 E0.02931
G1 X140.996 Y118.052 E0.83068
G1 X140.935 Y118.589 E0.01692
G1 X140.756 Y119.094 E0.01680
G1 X140.466 Y119.549 E0.01692
G1 X140.080 Y119.927 E0.01692
G1 X137.071 Y121.684 E0.10926
G1 X136.560 Y121.867 E0.01704
G1 X136.020 Y121.929 E0.01704
G1 X135.417 Y121.851 E0.01906
G1 X134.854 Y121.623 E0.01906
G1 X112.002 Y108.413 E0.82761
G1 X111.451 Y107.821 E0.02534
;WIPE_START
G1 F8640.000
G1 X111.081 Y106.960 E-0.21644
G1 X111.036 Y103.500 E-0.79898
G1 X111.113 Y102.901 E-0.13946
G1 X111.337 Y102.344 E-0.13859
G1 X111.430 Y102.217 E-0.03652
;WIPE_END
G1 E-0.07000 F2100.000
G1 Z0.600 F10800.000
G1 X114.317 Y105.668
G1 Z0.400
G1 E1.40000 F2100.000
M204 S800
;TYPE:Perimeter
G1 F2818
G1 X114.317 Y104.332 E0.04522
G1 X122.029 Y104.332 E0.26106
G1 X122.227 Y103.324 E0.03479
G1 X122.316 Y102.985 E0.01183
G1 X122.503 Y102.422 E0.02010
G1 X122.790 Y101.761 E0.02440
G1 X123.139 Y101.134 E0.02429
G1 X123.547 Y100.544 E0.02429
G1 X124.011 Y99.997 E0.02429
G1 X124.527 Y99.498 E0.02429
G1 X125.095 Y99.047 E0.02455
G1 X125.380 Y98.853 E0.01168
G1 X125.898 Y98.550 E0.02030
G1 X126.334 Y98.333 E0.01647
G1 X126.992 Y98.072 E0.02397
G1 X127.567 Y97.904 E0.02028
G1 X128.042 Y97.800 E0.01645
G1 X128.745 Y97.707 E0.02401
G1 X129.346 Y97.682 E0.02036
G1 X129.697 Y97.690 E0.01187
G1 X130.181 Y97.730 E0.01645
G1 X130.774 Y97.822 E0.02028
G1 X131.461 Y97.993 E0.02397
G1 X132.433 Y98.325 E0.03479
G1 X136.290 Y91.646 E0.26106
G1 X137.446 Y92.314 E0.04522
G1 X133.590 Y98.993 E0.26106
M73 Q5 S18
G1 X134.365 Y99.669 E0.03479
G1 X134.612 Y99.913 E0.01175
G1 X135.089 Y100.459 E0.02455
G1 X135.511 Y101.049 E0.02455
G1 X135.691 Y101.345 E0.01172
G1 X135.966 Y101.871 E0.02010
G1 X136.244 Y102.544 E0.02465
G1 X136.478 Y103.344 E0.02821
G1 X136.591 Y103.933 E0.02029
G1 X136.633 Y104.276 E0.01170
G1 X136.669 Y105.000 E0.02455
G1 X136.633 Y105.724 E0.02455
G1 X136.591 Y106.067 E0.01170
M73 P5 R18
G1 X136.478 Y106.656 E0.02029
G1 X136.244 Y107.456 E0.02821
G1 X135.966 Y108.129 E0.02465
G1 X135.691 Y108.655 E0.02010
G1 X135.511 Y108.951 E0.01172
G1 X135.089 Y109.541 E0.02455
G1 X134.612 Y110.087 E0.02455
G1 X134.365 Y110.331 E0.01175
G1 X133.590 Y111.007 E0.03479
G1 X137.446 Y117.686 E0.26106
G1 X136.290 Y118.354 E0.04522
G1 X132.433 Y111.675 E0.26106
G1 X131.461 Y112.007 E0.03479
G1 X130.774 Y112.178 E0.02397
G1 X130.181 Y112.270 E0.02028
G1 X129.697 Y112.310 E0.01645
G1 X129.346 Y112.318 E0.01187
G1 X128.745 Y112.293 E0.02036
G1 X128.042 Y112.200 E0.02401
G1 X127.567 Y112.096 E0.01645
G1 X126.992 Y111.928 E0.02028
G1 X126.334 Y111.667 E0.02397
G1 X125.898 Y111.450 E0.01647
G1 X125.380 Y111.147 E0.02030
G1 X125.095 Y110.953 E0.01168
G1 X124.527 Y110.502 E0.02455
G1 X124.011 Y110.003 E0.02429
G1 X123.547 Y109.456 E0.02429
