; generated by PrusaSlicer 2.3.0-beta2+ on 2020-12-15 at 10:15:20 UTC

; 

; external perimeters extrusion width = 0.45mm
; perimeters extrusion width = 0.45mm
; infill extrusion width = 0.45mm
; solid infill extrusion width = 0.45mm
; top infill extrusion width = 0.40mm
; first layer extrusion width = 0.42mm

M73 P0 R37
M73 Q0 S37
M201 X1000 Y1000 Z200 E5000 ; sets maximum accelerations, mm/sec^2
M203 X200 Y200 Z12 E120 ; sets maximum feedrates, mm/sec
M204 P1250 R1250 T1250 ; sets acceleration (P, T) and retract acceleration (R), mm/sec^2
M205 X8.00 Y8.00 Z0.40 E4.50 ; sets the jerk limits, mm/sec
M205 S0 T0 ; sets the minimum extruding and travel feed rate, mm/sec
M107
;TYPE:Custom
M862.3 P "MK3S" ; printer model check
M862.1 P0.4 ; nozzle diameter check
M115 U3.9.1 ; tell printer latest fw version
G90 ; use absolute coordinates
M83 ; extruder relative mode
M104 S260 ; set extruder temp
M140 S105 ; set bed temp
M190 S105 ; wait for bed temp
M109 S260 ; wait for extruder temp
G28 W ; home all without mesh bed level
G80 ; mesh bed leveling
G1 Y-3.0 F1000.0 ; go outside print area
G92 E0.0
G1 X60.0 E9.0 F1000.0 ; intro line
G1 X100.0 E12.5 F1000.0 ; intro line
G92 E0.0
M221 S95

; Don't change E values below. Excessive value can damage the printer.

M907 E538 ; set extruder motor current
G21 ; set units to millimeters
G90 ; use absolute coordinates
M83 ; use relative distances for extrusion
M900 K0.04 ; Filament gcode LA 1.5
M900 K20 ; Filament gcode LA 1.0
;LAYER_CHANGE
;Z:0.2
;HEIGHT:0.2
;BEFORE_LAYER_CHANGE
G92 E0.0
;0.2


G1 E-0.80000 F2100.000
G1 Z0.600 F10800.000
;AFTER_LAYER_CHANGE
;0.2
G1 X140.265 Y88.614
G1 Z0.200
G1 E0.80000 F2100.000
M204 S1000
;TYPE:Skirt
G1 F1200.000
G1 X141.120 Y89.139 E0.03145
G1 X142.250 Y90.462 E0.05456
G1 X143.440 Y92.186 E0.06568
G1 X144.449 Y94.031 E0.06594
G1 X145.055 Y95.420 E0.04752
G1 X145.717 Y97.399 E0.06543
G1 X146.176 Y99.469 E0.06645
G1 X146.362 Y100.890 E0.04496
G1 X146.448 Y102.309 E0.04457
G1 X146.433 Y103.730 E0.04457
G1 X146.316 Y105.176 E0.04547
G1 X144.873 Y114.091 E0.28317
G1 X144.527 Y115.419 E0.04303
G1 X144.063 Y116.207 E0.02866
G1 X139.946 Y120.813 E0.19370
G1 X139.255 Y121.292 E0.02638
G1 X138.451 Y121.541 E0.02638
G1 X113.714 Y121.569 E0.77560
G1 X112.805 Y121.392 E0.02904
G1 X112.010 Y120.926 E0.02892
G1 X111.572 Y120.461 E0.02001
G1 X111.250 Y119.905 E0.02014
G1 X107.074 Y109.480 E0.35212
G1 X106.646 Y108.096 E0.04545
G1 X106.322 Y106.700 E0.04493
G1 X106.097 Y105.284 E0.04493
G1 X105.972 Y103.840 E0.04545
G1 X105.974 Y101.753 E0.06546
G1 X106.111 Y100.236 E0.04776
G1 X106.487 Y98.165 E0.06597
G1 X107.076 Y96.145 E0.06597
G1 X107.631 Y94.727 E0.04776
G1 X108.568 Y92.848 E0.06584
G1 X109.698 Y91.073 E0.06597
G1 X110.611 Y89.884 E0.04699
G1 X111.204 Y89.211 E0.02812
G1 X111.688 Y88.835 E0.01924
G1 X112.311 Y88.553 E0.02141
G1 X112.987 Y88.433 E0.02154
G1 X139.279 Y88.430 E0.82437
G1 X140.206 Y88.603 E0.02957
G1 X140.136 Y88.971 F10800.000
G1 F1200.000
G1 X140.898 Y89.447 E0.02818
G1 X141.955 Y90.697 E0.05131
G1 X143.136 Y92.410 E0.06524
G1 X144.131 Y94.237 E0.06524
G1 X144.919 Y96.130 E0.06428
G1 X145.363 Y97.536 E0.04625
G1 X145.806 Y99.546 E0.06452
G1 X146.071 Y102.318 E0.08731
G1 X145.943 Y105.122 E0.08802
G1 X144.505 Y114.008 E0.28222
G1 X144.179 Y115.273 E0.04098
G1 X143.765 Y115.975 E0.02555
G1 X139.703 Y120.524 E0.19120
G1 X139.102 Y120.948 E0.02308
G1 X138.395 Y121.168 E0.02319
G1 X113.730 Y121.192 E0.77335
G1 X112.938 Y121.039 E0.02532
G1 X112.239 Y120.626 E0.02543
G1 X111.864 Y120.223 E0.01728
G1 X111.593 Y119.747 E0.01716
G1 X107.427 Y109.349 E0.35122
G1 X107.010 Y107.998 E0.04434
G1 X106.692 Y106.628 E0.04410
G1 X106.471 Y105.239 E0.04410
G1 X106.348 Y103.819 E0.04469
G1 X106.351 Y101.767 E0.06434
G1 X106.485 Y100.286 E0.04661
G1 X106.854 Y98.253 E0.06481
G1 X107.434 Y96.264 E0.06494
G1 X107.974 Y94.884 E0.04648
G1 X108.898 Y93.030 E0.06494
G1 X110.009 Y91.287 E0.06482
G1 X110.910 Y90.115 E0.04636
G1 X111.454 Y89.494 E0.02587
G1 X111.872 Y89.164 E0.01669
G1 X112.421 Y88.914 E0.01894
G1 X113.016 Y88.810 E0.01894
G1 X139.279 Y88.807 E0.82345
G1 X140.077 Y88.960 E0.02547
;WIPE_START
G1 F8640.000
G1 X140.898 Y89.447 E-0.22053
G1 X141.955 Y90.697 E-0.37789
G1 X142.352 Y91.273 E-0.16158
;WIPE_END
G1 E-0.04000 F2100.000
G1 Z0.800 F10800.000
G1 X139.974 Y94.055
G1 Z0.200
G1 E0.80000 F2100.000
;TYPE:Perimeter
G1 F1200.000
G1 X140.510 Y94.987 E0.03369
G1 X140.988 Y95.930 E0.03313
G1 X141.443 Y97.008 E0.03670
G1 X141.820 Y98.115 E0.03668
G1 X142.117 Y99.247 E0.03668
G1 X142.332 Y100.396 E0.03668
G1 X142.464 Y101.563 E0.03682
G1 X142.503 Y102.254 E0.02168
G1 X142.501 Y103.427 E0.03680
G1 X142.415 Y104.594 E0.03668
G1 X142.246 Y105.752 E0.03670
G1 X142.021 Y106.785 E0.03315
G1 X141.839 Y107.454 E0.02173
G1 X141.464 Y108.571 E0.03696
G1 X141.000 Y109.736 E0.03932
G1 X140.905 Y110.076 E0.01106
G1 X140.845 Y110.426 E0.01114
G1 X140.820 Y110.820 E0.01236
G1 X140.820 Y113.801 E0.09348
G1 X136.863 Y116.762 E0.15497
G1 X136.863 Y117.629 E0.02717
G1 X114.903 Y117.629 E0.68853
M73 P1 R37
M73 Q1 S37
G1 X114.873 Y117.291 E0.01063
G1 X114.702 Y116.315 E0.03108
G1 X114.444 Y115.357 E0.03110
G1 X114.103 Y114.427 E0.03107
G1 X113.725 Y113.620 E0.02792
G1 X113.440 Y113.097 E0.01868
G1 X113.178 Y112.672 E0.01564
G1 X112.271 Y111.306 E0.05144
G1 X111.705 Y110.298 E0.03623
G1 X111.213 Y109.258 E0.03607
G1 X110.797 Y108.186 E0.03607
G1 X110.456 Y107.087 E0.03607
G1 X110.195 Y105.966 E0.03607
G1 X110.012 Y104.825 E0.03623
G1 X109.952 Y104.263 E0.01773
G1 X109.894 Y103.222 E0.03268
G1 X109.890 Y102.533 E0.02163
G1 X109.910 Y101.964 E0.01785
G1 X109.999 Y100.925 E0.03268
G1 X110.092 Y100.242 E0.02163
G1 X110.191 Y99.682 E0.01785
G1 X110.425 Y98.666 E0.03267
G1 X110.614 Y98.003 E0.02163
G1 X110.791 Y97.462 E0.01785
G1 X111.166 Y96.489 E0.03267
G1 X111.443 Y95.863 E0.02146
G1 X111.975 Y94.832 E0.03638
G1 X112.426 Y94.055 E0.02817
G1 X112.412 Y103.603 E0.29937
G1 X116.013 Y103.603 E0.11290
G1 X116.013 Y111.603 E0.25083
G1 X136.587 Y111.603 E0.64509
G1 X136.587 Y103.603 E0.25083
G1 X139.988 Y103.603 E0.10663
G1 X139.977 Y94.115 E0.29748
;WIPE_START
G1 F8640.000
G1 X140.510 Y94.987 E-0.23592
G1 X140.988 Y95.930 E-0.24401
G1 X141.443 Y97.008 E-0.27030
G1 X141.457 Y97.048 E-0.00977
;WIPE_END
G1 E-0.04000 F2100.000
G1 Z0.800 F10800.000
G1 X112.790 Y103.226
G1 Z0.200
G1 E0.80000 F2100.000
;TYPE:External perimeter
G1 F1200.000
G1 X116.390 Y103.226 E0.11288
G1 X116.390 Y111.226 E0.25083
G1 X136.210 Y111.226 E0.62144
G1 X136.210 Y103.226 E0.25083
G1 X139.610 Y103.226 E0.10661
G1 X139.600 Y94.097 E0.28624
G1 X139.554 Y93.592 E0.01589
G1 X139.455 Y93.107 E0.01550
G1 X139.403 Y92.571 E0.01688
G1 X139.019 Y92.098 E0.01913
G1 X139.102 Y92.005 E0.00391
G1 X139.277 Y92.127 E0.00667
G1 X139.698 Y92.665 E0.02141
G1 X140.236 Y93.755 E0.03812
G1 X140.842 Y94.807 E0.03807
G1 X141.330 Y95.771 E0.03386
G1 X141.796 Y96.873 E0.03753
G1 X142.181 Y98.006 E0.03752
G1 X142.485 Y99.164 E0.03752
G1 X142.705 Y100.340 E0.03752
G1 X142.840 Y101.531 E0.03757
G1 X142.880 Y102.243 E0.02236
G1 X142.878 Y103.442 E0.03757
G1 X142.790 Y104.635 E0.03752
G1 X142.617 Y105.820 E0.03753
G1 X142.387 Y106.875 E0.03386
G1 X142.200 Y107.564 E0.02238
G1 X141.818 Y108.701 E0.03762
G1 X141.358 Y109.857 E0.03901
G1 X141.274 Y110.159 E0.00983
G1 X141.220 Y110.470 E0.00990
G1 X141.197 Y110.831 E0.01135
G1 X141.197 Y113.990 E0.09903
G1 X137.240 Y116.951 E0.15497
G1 X137.240 Y118.006 E0.03307
G1 X114.558 Y118.006 E0.71118
G1 X114.499 Y117.340 E0.02095
G1 X114.333 Y116.397 E0.03004
G1 X114.084 Y115.471 E0.03005
G1 X113.754 Y114.572 E0.03004
G1 X113.389 Y113.791 E0.02705
G1 X113.113 Y113.286 E0.01801
G1 X112.862 Y112.877 E0.01506
G1 X112.261 Y111.995 E0.03347
G1 X111.947 Y111.499 E0.01840
G1 X111.369 Y110.471 E0.03696
G1 X110.867 Y109.407 E0.03691
G1 X110.440 Y108.310 E0.03690
G1 X110.092 Y107.185 E0.03691
G1 X109.824 Y106.039 E0.03691
G1 X109.638 Y104.875 E0.03696
G1 X109.576 Y104.293 E0.01835
G1 X109.517 Y103.234 E0.03327
G1 X109.513 Y102.527 E0.02216
G1 X109.533 Y101.941 E0.01839
G1 X109.624 Y100.884 E0.03327
G1 X109.719 Y100.184 E0.02216
G1 X109.822 Y99.606 E0.01839
G1 X110.060 Y98.572 E0.03327
G1 X110.253 Y97.892 E0.02216
G1 X110.436 Y97.335 E0.01839
G1 X110.817 Y96.345 E0.03327
G1 X111.103 Y95.701 E0.02210
G1 X111.644 Y94.651 E0.03703
G1 X112.183 Y93.722 E0.03367
G1 X112.714 Y92.650 E0.03751
G1 X113.129 Y92.120 E0.02111
G1 X113.297 Y92.004 E0.00638
G1 X113.381 Y92.098 E0.00395
G1 X112.997 Y92.571 E0.01913
G1 X112.945 Y93.107 E0.01688
G1 X112.846 Y93.592 E0.01550
G1 X112.801 Y94.097 E0.01589
G1 X112.790 Y103.166 E0.28436
G1 X112.789 Y103.626 F10800.000
;WIPE_START
G1 F8640.000
G1 X116.081 Y103.221 E-0.76000
;WIPE_END
G1 E-0.04000 F2100.000
G1 Z0.800 F10800.000
G1 X115.900 Y104.288
G1 Z0.200
G1 E0.80000 F2100.000
;TYPE:Solid infill
G1 F1200.000
G1 X115.498 Y103.886 E0.01786
G1 X114.964 Y103.886 E0.01678
G1 X115.730 Y104.652 E0.03405
G1 X115.730 Y105.187 E0.01678
G1 X114.429 Y103.886 E0.05779
G1 X113.895 Y103.886 E0.01678
G1 X115.730 Y105.721 E0.08152
G1 X115.730 Y106.255 E0.01678
G1 X113.361 Y103.886 E0.10525
G1 X112.827 Y103.886 E0.01678
G1 X115.900 Y106.959 E0.13652
;WIPE_START
G1 F8640.000
G1 X113.572 Y104.632 E-0.76000
;WIPE_END
G1 E-0.04000 F2100.000
G1 Z0.800 F10800.000
G1 X114.869 Y116.613
G1 Z0.200
G1 E0.80000 F2100.000
G1 F1200.000
G1 X115.602 Y117.346 E0.03258
G1 X116.136 Y117.346 E0.01678
G1 X114.954 Y116.163 E0.05254
G1 X114.757 Y115.432 E0.02378
G1 X116.671 Y117.346 E0.08501
G1 X117.205 Y117.346 E0.01678
G1 X114.472 Y114.613 E0.12139
G1 X114.364 Y114.318 E0.00988
G1 X114.058 Y113.665 E0.02263
G1 X117.739 Y117.346 E0.16350
G1 X118.273 Y117.346 E0.01678
G1 X113.356 Y112.429 E0.21842
G1 X112.512 Y111.158 E0.04793
G1 X112.374 Y110.912 E0.00885
G1 X118.808 Y117.346 E0.28578
G1 X119.342 Y117.346 E0.01678
G1 X111.770 Y109.774 E0.33636
G1 X111.473 Y109.146 E0.02181
G1 X111.344 Y108.814 E0.01118
G1 X119.876 Y117.346 E0.37899
G1 X120.410 Y117.346 E0.01678
G1 X111.022 Y107.958 E0.41704
G1 X110.783 Y107.184 E0.02544
G1 X121.114 Y117.516 E0.45894
;WIPE_START
G1 F8640.000
G1 X118.787 Y115.188 E-0.76000
;WIPE_END
G1 E-0.04000 F2100.000
G1 Z0.800 F10800.000
G1 X112.735 Y93.081
G1 Z0.200
G1 E0.80000 F2100.000
;TYPE:Gap fill
G1 F1200.000
G1 X112.573 Y93.557 E0.00380
G1 X112.483 Y93.875 E0.00585
;WIPE_START
G1 F8640.000
G1 X112.573 Y93.557 E-0.07648
;WIPE_END
G1 E-0.72352 F2100.000
G1 Z0.800 F10800.000
G1 X111.994 Y95.040
G1 Z0.200
G1 E0.80000 F2100.000
;TYPE:Solid infill
G1 F1200.000
G1 X112.139 Y95.185 E0.00644
G1 X112.139 Y95.719 E0.01676
G1 X111.939 Y95.519 E0.00888
G1 X111.757 Y95.871 E0.01246
G1 X112.138 Y96.252 E0.01692
G1 X112.137 Y96.786 E0.01676
G1 X111.587 Y96.236 E0.02444
G1 X111.424 Y96.606 E0.01272
G1 X112.137 Y97.319 E0.03169
G1 X112.136 Y97.853 E0.01676
G1 X111.275 Y96.992 E0.03826
G1 X111.126 Y97.377 E0.01298
G1 X112.136 Y98.387 E0.04483
G1 X112.135 Y98.920 E0.01676
G1 X110.987 Y97.772 E0.05100
G1 X110.858 Y98.177 E0.01336
G1 X112.134 Y99.454 E0.05670
G1 X112.134 Y99.987 E0.01676
G1 X110.740 Y98.594 E0.06192
G1 X110.634 Y99.022 E0.01385
G1 X112.133 Y100.521 E0.06661
G1 X112.132 Y101.055 E0.01676
G1 X110.534 Y99.456 E0.07103
G1 X110.440 Y99.897 E0.01416
G1 X112.132 Y101.588 E0.07514
G1 X112.131 Y102.122 E0.01676
G1 X110.362 Y100.353 E0.07859
G1 X110.298 Y100.823 E0.01491
G1 X112.131 Y102.655 E0.08141
M73 P1 R36
G1 X112.130 Y103.189 E0.01676
G1 X110.250 Y101.309 E0.08353
G1 X110.207 Y101.801 E0.01551
M73 Q2 S37
G1 X115.730 Y107.323 E0.24533
M73 P2 R36
G1 X115.730 Y107.858 E0.01678
G1 X110.180 Y102.308 E0.24652
G1 X110.174 Y102.836 E0.01659
G1 X115.730 Y108.392 E0.24680
G1 X115.730 Y108.926 E0.01678
G1 X110.186 Y103.382 E0.24628
G1 X110.217 Y103.948 E0.01779
G1 X115.730 Y109.460 E0.24489
G1 X115.730 Y109.995 E0.01678
G1 X110.264 Y104.529 E0.24280
G1 X110.350 Y105.148 E0.01965
G1 X115.730 Y110.529 E0.23900
G1 X115.730 Y111.063 E0.01678
G1 X110.452 Y105.785 E0.23447
G1 X110.603 Y106.470 E0.02203
G1 X121.479 Y117.346 E0.48313
G1 X122.013 Y117.346 E0.01678
G1 X116.553 Y111.886 E0.24255
G1 X117.087 Y111.886 E0.01678
G1 X122.547 Y117.346 E0.24255
G1 X123.081 Y117.346 E0.01678
G1 X117.621 Y111.886 E0.24255
G1 X118.155 Y111.886 E0.01678
G1 X123.616 Y117.346 E0.24255
G1 X124.150 Y117.346 E0.01678
G1 X118.690 Y111.886 E0.24255
G1 X119.224 Y111.886 E0.01678
G1 X124.684 Y117.346 E0.24255
G1 X125.218 Y117.346 E0.01678
G1 X119.758 Y111.886 E0.24255
G1 X120.292 Y111.886 E0.01678
G1 X125.753 Y117.346 E0.24255
G1 X126.287 Y117.346 E0.01678
G1 X120.827 Y111.886 E0.24255
G1 X121.361 Y111.886 E0.01678
G1 X126.821 Y117.346 E0.24255
G1 X127.355 Y117.346 E0.01678
G1 X121.895 Y111.886 E0.24255
M73 Q2 S36
G1 X122.429 Y111.886 E0.01678
G1 X127.890 Y117.346 E0.24255
G1 X128.424 Y117.346 E0.01678
G1 X122.964 Y111.886 E0.24255
G1 X123.498 Y111.886 E0.01678
G1 X128.958 Y117.346 E0.24255
G1 X129.492 Y117.346 E0.01678
G1 X124.032 Y111.886 E0.24255
G1 X124.566 Y111.886 E0.01678
G1 X130.026 Y117.346 E0.24255
G1 X130.561 Y117.346 E0.01678
G1 X125.100 Y111.886 E0.24255
G1 X125.635 Y111.886 E0.01678
G1 X131.095 Y117.346 E0.24255
G1 X131.629 Y117.346 E0.01678
G1 X126.169 Y111.886 E0.24255
G1 X126.703 Y111.886 E0.01678
G1 X132.163 Y117.346 E0.24255
G1 X132.698 Y117.346 E0.01678
G1 X127.237 Y111.886 E0.24255
G1 X127.772 Y111.886 E0.01678
G1 X133.232 Y117.346 E0.24255
G1 X133.766 Y117.346 E0.01678
G1 X128.306 Y111.886 E0.24255
G1 X128.840 Y111.886 E0.01678
G1 X134.300 Y117.346 E0.24255
G1 X134.835 Y117.346 E0.01678
G1 X129.374 Y111.886 E0.24255
G1 X129.909 Y111.886 E0.01678
G1 X135.369 Y117.346 E0.24255
G1 X135.903 Y117.346 E0.01678
G1 X130.443 Y111.886 E0.24255
G1 X130.977 Y111.886 E0.01678
G1 X136.437 Y117.346 E0.24255
G1 X136.580 Y117.346 E0.00449
G1 X136.580 Y116.955 E0.01229
G1 X131.511 Y111.886 E0.22517
G1 X132.045 Y111.886 E0.01678
G1 X136.695 Y116.535 E0.20653
G1 X137.000 Y116.306 E0.01199
G1 X132.580 Y111.886 E0.19637
G1 X133.114 Y111.886 E0.01678
G1 X137.306 Y116.078 E0.18622
G1 X137.612 Y115.849 E0.01199
G1 X133.648 Y111.886 E0.17606
G1 X134.182 Y111.886 E0.01678
G1 X137.917 Y115.620 E0.16590
G1 X138.223 Y115.392 E0.01199
G1 X134.717 Y111.886 E0.15574
G1 X135.251 Y111.886 E0.01678
G1 X138.528 Y115.163 E0.14559
G1 X138.834 Y114.934 E0.01199
G1 X135.785 Y111.886 E0.13543
G1 X136.319 Y111.886 E0.01678
G1 X139.139 Y114.706 E0.12527
G1 X139.445 Y114.477 E0.01199
G1 X136.854 Y111.886 E0.11512
G1 X136.870 Y111.886 E0.00051
G1 X136.870 Y111.368 E0.01627
G1 X139.751 Y114.248 E0.12797
G1 X140.056 Y114.020 E0.01199
G1 X136.870 Y110.834 E0.14154
G1 X136.870 Y110.299 E0.01678
G1 X140.362 Y113.791 E0.15511
G1 X140.538 Y113.660 E0.00690
G1 X140.538 Y113.433 E0.00712
G1 X136.870 Y109.765 E0.16293
G1 X136.870 Y109.231 E0.01678
G1 X140.538 Y112.899 E0.16293
G1 X140.538 Y112.364 E0.01678
G1 X136.870 Y108.697 E0.16293
G1 X136.870 Y108.162 E0.01678
G1 X140.538 Y111.830 E0.16293
G1 X140.538 Y111.296 E0.01678
G1 X136.870 Y107.628 E0.16293
G1 X136.870 Y107.094 E0.01678
G1 X140.540 Y110.765 E0.16305
G1 X140.584 Y110.274 E0.01547
G1 X136.870 Y106.560 E0.16500
G1 X136.870 Y106.025 E0.01678
G1 X140.679 Y109.835 E0.16922
M73 Q3 S36
G1 X140.815 Y109.437 E0.01322
G1 X136.870 Y105.491 E0.17526
M73 P3 R36
G1 X136.870 Y104.957 E0.01678
G1 X140.967 Y109.054 E0.18201
G1 X141.119 Y108.672 E0.01292
G1 X136.870 Y104.423 E0.18876
G1 X136.870 Y103.889 E0.01678
G1 X141.263 Y108.281 E0.19514
G1 X141.397 Y107.882 E0.01325
G1 X137.401 Y103.886 E0.17751
G1 X137.935 Y103.886 E0.01678
G1 X141.532 Y107.482 E0.15975
G1 X141.651 Y107.067 E0.01355
G1 X138.470 Y103.886 E0.14133
G1 X139.004 Y103.886 E0.01678
G1 X141.762 Y106.644 E0.12253
G1 X141.858 Y106.205 E0.01410
G1 X139.538 Y103.886 E0.10305
G1 X140.072 Y103.886 E0.01678
G1 X141.953 Y105.767 E0.08356
G1 X142.026 Y105.305 E0.01469
G1 X140.270 Y103.550 E0.07797
G1 X140.270 Y103.015 E0.01680
G1 X142.094 Y104.839 E0.08102
G1 X142.149 Y104.359 E0.01515
G1 X140.269 Y102.480 E0.08351
G1 X140.268 Y101.945 E0.01680
G1 X142.185 Y103.862 E0.08517
G1 X142.218 Y103.360 E0.01578
G1 X140.267 Y101.410 E0.08666
G1 X140.267 Y100.875 E0.01680
